src/assets/outline/Ethereum.svg

<svg width="24" height="24" viewBox="0 0 24 24"  xmlns="http://www.w3.org/2000/svg">
<path d="M11.9999 13.53C11.5599 13.53 11.1199 13.44 10.7699 13.27L7.03992 11.4C6.25992 11.01 5.70992 10.33 5.53992 9.55C5.36992 8.76 5.57991 7.92 6.12991 7.24L9.85992 2.58C10.4099 1.89 11.1899 1.5 11.9999 1.5C12.8099 1.5 13.5899 1.89 14.1399 2.58L17.8699 7.25C18.4199 7.93 18.6299 8.77 18.4599 9.56C18.2899 10.35 17.7399 11.02 16.9599 11.41L13.2299 13.28C12.8799 13.45 12.4399 13.53 11.9999 13.53ZM11.0299 3.52L7.29992 8.18C7.03992 8.51 6.92992 8.88 7.00992 9.23C7.08992 9.58 7.33992 9.87 7.71992 10.06L11.4499 11.93C11.7299 12.07 12.2799 12.07 12.5599 11.93L16.2899 10.06C16.6699 9.87 16.9199 9.57 16.9999 9.23C17.0799 8.89 16.9699 8.51 16.7099 8.18L12.9799 3.52C12.4299 2.85 11.5699 2.85 11.0299 3.52Z" />
<path d="M12 8.31078C11.59 8.31078 11.25 7.97078 11.25 7.56078V2.30078C11.25 1.89078 11.59 1.55078 12 1.55078C12.41 1.55078 12.75 1.89078 12.75 2.30078V7.56078C12.75 7.97078 12.41 8.31078 12 8.31078Z" />
<path d="M16.2001 11.4605C16.0401 11.4605 15.8901 11.4105 15.7501 11.3105L12.0001 8.49055L8.25008 11.3105C7.92008 11.5605 7.45008 11.4905 7.20008 11.1605C6.95008 10.8305 7.02008 10.3605 7.35008 10.1105L11.5501 6.96055C11.8201 6.76055 12.1801 6.76055 12.4501 6.96055L16.6501 10.1105C16.9801 10.3605 17.0501 10.8305 16.8001 11.1605C16.6601 11.3605 16.4301 11.4605 16.2001 11.4605Z" />
<path d="M12.0002 22.4991C11.2002 22.4991 10.4202 22.1191 9.87016 21.4391L6.41016 17.2091C5.74016 16.3891 5.72015 15.2691 6.36015 14.4191C7.00015 13.5691 8.09015 13.2991 9.06015 13.7291L10.6702 14.4491C11.5102 14.8191 12.4702 14.8191 13.3102 14.4491L14.9202 13.7291C15.8902 13.2991 16.9802 13.5791 17.6202 14.4191C18.2702 15.2691 18.2502 16.3891 17.5702 17.2091L14.1102 21.4391C13.5802 22.1191 12.8002 22.4991 12.0002 22.4991ZM8.14015 15.0391C7.83015 15.0391 7.63015 15.2591 7.56015 15.3391C7.48015 15.4491 7.23016 15.8391 7.58016 16.2691L11.0402 20.4991C11.5702 21.1491 12.4402 21.1491 12.9702 20.4991L16.4302 16.2691C16.7802 15.8391 16.5302 15.4491 16.4502 15.3391C16.3702 15.2291 16.0502 14.8891 15.5502 15.1091L13.9402 15.8291C12.7102 16.3691 11.3102 16.3691 10.0802 15.8291L8.47015 15.1091C8.34015 15.0591 8.23015 15.0391 8.14015 15.0391Z" />
</svg>

<?xml version="1.0" encoding="UTF-8"?>
<svg width="24" height="24" viewBox="0 0 24 24" xmlns="http://www.w3.org/2000/svg">
 <path d="m12 13.53c-0.44 0-0.88-0.09-1.23-0.26l-3.73-1.87c-0.78-0.39-1.33-1.07-1.5-1.85-0.17-0.79 0.03999-1.63 0.58999-2.31l3.73-4.66c0.54998-0.69 1.33-1.08 2.14-1.08s1.59 0.39 2.14 1.08l3.73 4.67c0.55 0.68 0.76 1.52 0.59 2.31s-0.72 1.46-1.5 1.85l-3.73 1.87c-0.35 0.17-0.79 0.25-1.23 0.25zm-0.97-10.01-3.73 4.66c-0.26 0.33-0.37 0.7-0.29 1.05s0.33 0.64 0.71 0.83l3.73 1.87c0.28 0.14 0.83 0.14 1.11 0l3.73-1.87c0.38-0.19 0.63-0.49 0.71-0.83s-0.03-0.72-0.29-1.05l-3.73-4.66c-0.55-0.67-1.41-0.67-1.95 0z"/>
 <path d="m12 8.3108c-0.41 0-0.75-0.34-0.75-0.75v-5.26c0-0.41 0.34-0.75 0.75-0.75s0.75 0.34 0.75 0.75v5.26c0 0.41-0.34 0.75-0.75 0.75z"/>
 <path d="m16.2 11.46c-0.16 0-0.31-0.05-0.45-0.15l-3.75-2.82-3.75 2.82c-0.33 0.25-0.8 0.18-1.05-0.15s-0.18-0.8 0.15-1.05l4.2-3.15c0.27-0.2 0.63-0.2 0.9 0l4.2 3.15c0.33 0.25 0.4 0.72 0.15 1.05-0.14 0.2-0.37 0.3-0.6 0.3z"/>
 <path d="m12 22.499c-0.8 0-1.58-0.38-2.13-1.06l-3.46-4.23c-0.67-0.82-0.69001-1.94-0.05001-2.79s1.73-1.12 2.7-0.69l1.61 0.72c0.84 0.37 1.8 0.37 2.64 0l1.61-0.72c0.97-0.43 2.06-0.15 2.7 0.69 0.65 0.85 0.63 1.97-0.05 2.79l-3.46 4.23c-0.53 0.68-1.31 1.06-2.11 1.06zm-3.86-7.46c-0.31 0-0.51 0.22-0.58 0.3-0.08 0.11-0.32999 0.5 0.02001 0.93l3.46 4.23c0.53 0.65 1.4 0.65 1.93 0l3.46-4.23c0.35-0.43 0.1-0.82 0.02-0.93s-0.4-0.45-0.9-0.23l-1.61 0.72c-1.23 0.54-2.63 0.54-3.86 0l-1.61-0.72c-0.13-0.05-0.24-0.07-0.33-0.07z"/>
</svg>
